antibot/app/images/dist/why/why-icon3.svg

<svg width="40" height="41" viewBox="0 0 40 41" fill="none" xmlns="http://www.w3.org/2000/svg">
<path d="M19.9993 3.83203L20.1943 3.8437C20.5664 3.88757 20.9128 4.0555 21.1777 4.32038C21.4425 4.58527 21.6105 4.93167 21.6543 5.3037L21.666 5.4987V12.1654L21.6743 12.4154C21.734 13.209 22.0756 13.9551 22.6374 14.5187C23.1993 15.0824 23.9443 15.4265 24.7377 15.4887L24.9993 15.4987H31.666L31.861 15.5104C32.233 15.5542 32.5794 15.7222 32.8443 15.9871C33.1092 16.2519 33.2771 16.5983 33.321 16.9704L33.3327 17.1654V32.1654C33.3328 33.4407 32.8455 34.6679 31.9705 35.5958C31.0956 36.5237 29.8992 37.0822 28.626 37.157L28.3327 37.1654H11.666C10.3907 37.1654 9.16349 36.6782 8.23558 35.8032C7.30767 34.9283 6.74917 33.7319 6.67435 32.4587L6.66602 32.1654V8.83203C6.66594 7.55668 7.15322 6.32951 8.02815 5.4016C8.90309 4.47369 10.0995 3.91519 11.3727 3.84036L11.666 3.83203H19.9993Z" fill="#29B74D"/>
<path d="M31.6664 12.1683H24.9997L24.998 5.5L31.6664 12.1683Z" fill="#29B74D"/>
</svg>

<svg width="40" height="41" fill="none" xmlns="http://www.w3.org/2000/svg"><path d="m20 3.832.194.012a1.667 1.667 0 0 1 1.46 1.46l.012.195v6.666l.008.25a3.334 3.334 0 0 0 3.064 3.074l.261.01h6.667l.195.011a1.666 1.666 0 0 1 1.46 1.46l.012.195v15a5 5 0 0 1-4.707 4.992l-.293.008H11.666a5 5 0 0 1-4.992-4.706l-.008-.294V8.832a5 5 0 0 1 4.707-4.992l.293-.008h8.333Z" fill="#29B74D"/><path d="M31.666 12.168H25L24.998 5.5l6.668 6.668Z" fill="#29B74D"/></svg>
